X:1
T:Arise and hail the sacred day
T:Arise and hail the sacred day - Meriba (John Massey)
C:John Massey
Z:p24, Sacred Music,
Z:Manchester: [c1810]
%%score [ 1 2 3 4 ]
L:1/8
M:2/2
K:D
V:1 treble nm="Soprano" snm="S."
V:2 treble nm="Alto" snm="A."
V:3 treble-8 transpose=-12 nm="Tenor" snm="T."
V:4 bass nm="Bass" snm="B."
V:1
 A4 | (de f4) d2 | (c2 B2) (A2 G2) | F4 A4 | d6 f2 | (e2 c2 A2) d2 | (c2 e2 f2) (ed) | c4 B4 | %8
w: How|won- * * der-|ful! _ how _|vast his|love! Who|left _ _ the|shi- * * ning _|realms a-|
w: A-|rise _ _ and|hail _ the _|sa- cred|day, Cast|all _ _ low|cares _ _ of _|life a-|
w: If|an- * * gels,|on _ that _|hap- py|morn The|sa- * * viour|of _ _ the _|world was|
 A6 A2 | d4 (f2 d2) | B4 ^A4 | B8 | A4 F2 A2 | d6 A2 | (B2 A2) (G2 F2) | (F4 E2) B2 | A4 G4 | %17
w: bove, Those|hap- py _|seats of|rest:|How much for|lost man-|kind _ he _|bore, _ Their|peace and|
w: way, And|thoughts of _|mea- ner|things:|This day to|cure thy|dead- * ly _|woes, _ The|sun of|
w: born, Pour'd|forth se- *|ra- phic|songs,|Much more should|we of|hu- * man _|race _ A-|dore the|
 (F2 A2) (B2 c2) | d4 (ef g2) | f6 d2 | (cdec A2) d2 | B4 c4 | d8 || %23
w: par- * don _|to re- * *|store, Can|ne- * * * * ver|be ex-|press’d.|
w: right- * eous- *|ness a- * *|rose, With|heal- * * * * ing|in his|wings.|
w: won- * ders _|of his _ _|grace, To|whom _ _ _ _ the|grace be-|longs.|
[M:3/4]"^Chorus Brisk" d2 d2 A2 | (B2 A2) d2 | (e2 d2) c2 | d4 d2 | (c>B c>d e>c | A4) G2 | %29
w: ||||||
w: O then let|heav’n _ and|earth _ re-|joice, re-|joice, _ _ _ _ _|_ Cre-|
w: ||||||
 (F2 A2) d2 | (B2 G2) F2 | (E2 F2) G2 | A4 c2 | d4 e2 | (f2 d2) A2 | (B3 d) c2 | d6 |] %37
w: ||||||||
w: a- * tion’s|whole _ u-|ni- * ted|voice, And|hymn the|hap- * py,|hap- * py|day.|
w: ||||||||
V:2
 D4 | (FG A4) D2 | E4 (F2 C2) | D4 E4 | F6 A2 | (A2 E4) E2 | (E2 A4) F2 | E4 E4 | E6 E2 | F4 A4 | %10
w: How|won- * * der-|ful! how _|vast his|love! Who|left _ the|shi- * ning|realms a-|bove, Those|hap- py|
w: A-|rise _ _ and|hail the _|sa- cred|day, Cast|all _ low|cares _ of|life a-|way, And|thoughts of|
w: If|an- * * gels,|on that _|hap- py|morn The|sa- * viour|of _ the|world was|born, Pour'd|forth se-|
 G4 F4 | F8 | D4 D2 E2 | (F2 G2 A2) F2 | D4 (C2 D2) | (D4 C2) D2 | F4 E4 | F4 (D2 E2) | %18
w: seats of|rest:|How much for|lost _ _ man-|kind he _|bore, _ Their|peace and|par- don _|
w: mea- ner|things:|This day to|cure _ _ thy|dead- ly _|woes, _ The|sun of|right- eous- *|
w: ra- phic|songs,|Much more should|we _ _ of|hu- man _|race _ A-|dore the|won- ders _|
 (F2 A2) A4 | A6 D2 | (E4 F2) F2 | G4 E4 | F8 ||[M:3/4] F2 F2 F2 | (G2 F2) A2 | (G2 F2) E2 | %26
w: to _ re-|store, Can|ne- * ver|be ex-|press’d.||||
w: ness _ a-|rose, With|heal- * ing|in his|wings.|O then let|heav’n _ and|earth _ re-|
w: of _ his|grace, To|whom _ the|grace be-|longs.||||
 F4 A2 | (A4 G2 | F4) G2 | (F2 A2) D2 | (B2 G2) F2 | (E2 F2) G2 | A4 E2 | F4 A2 | (A2 F2) F2 | %35
w: |||||||||
w: joice, re-|joice, _|_ Cre-|a- * tion’s|whole _ u-|ni- * ted|voice, And|hymn the|hap- * py,|
w: |||||||||
 G4 E2 | F6 |] %37
w: ||
w: hap- py|day.|
w: ||
V:3
 F4 | (A2 d4) f2 | (c2 d2) (d2 A2) | A4 A4 | A6 d2 | c6 B2 | (A2 c2 d2) A2 | A4 ^G4 | A6 A2 | %9
w: How|won- * der-|ful! _ how _|vast his|love! Who|left the|shi- * * ning|realms a-|bove, Those|
w: A-|rise _ and|hail _ the _|sa- cred|day, Cast|all low|cares _ _ of|life a-|way, And|
w: If|an- * gels,|on _ that _|hap- py|morn The|sa- viour|of _ _ the|world was|born, Pour'd|
 A4 (d2 f2) | (e2 d2) c4 | B8 | F4 A2 c2 | (d2 e2 f2) d2 | d4 A4 | A6 d2 | d4 (d2 c2) | %17
w: hap- py _|seats _ of|rest:|How much for|lost _ _ man-|kind he|bore, Their|peace and _|
w: thoughts of _|mea- * ner|things:|This day to|cure _ _ thy|dead- ly|woes, The|sun of _|
w: forth se- *|ra- * phic|songs,|Much more should|we _ _ of|hu- man|race A-|dore the _|
 d4 (B2 A2) | A4 c4 | d6 F2 | (A2 c2 d2) A2 | B4 A4 | A8 ||[M:3/4] A2 A2 d2 | d4 A2 | (B2 A2) A2 | %26
w: par- don _|to re-|store, Can|ne- * * ver|be ex-|press’d.||||
w: right- eous- *|ness a-|rose, With|heal- * * ing|in his|wings.|O then let|heav’n and|earth _ re-|
w: won- ders _|of his|grace, To|whom _ _ the|grace be-|longs.||||
 A4 d2 | (c>d e>d c2 | d4) G2 | (F2 A2) d2 | (B2 G2) F2 | (E2 F2) G2 | A4 A2 | A4 c2 | (d2 A2) d2 | %35
w: |||||||||
w: joice, re-|joice, _ _ _ _|_ Cre-|a- * tion’s|whole _ u-|ni- * ted|voice, And|hymn the|hap- * py,|
w: |||||||||
 B4 A2 | A6 |] %37
w: ||
w: hap- py|day.|
w: ||
V:4
 D,4 | D6 B,2 | (A,2"^65" G,2)"^6" (F,2"^64" E,2) | D,4"^6" C,4 | D,6 D,2 | A,6"^65" ^G,2 | %6
w: How|won- der-|ful! _ how _|vast his|love! Who|left the|
w: A-|rise and|hail _ the _|sa- cred|day, Cast|all low|
w: If|an- gels,|on _ that _|hap- py|morn The|sa- viour|
 A,4 D,4 |"^64" E,4"^5D" E,4 | %8
w: shi- ning|realms a-|
w: cares of|life a-|
w: of the|world was|
"^Notes: Original order of staves is Tenor - Alto - Air - Bass, with the Alto part printed in the treble clef an octave above sounding pitch.The figuring on the bass C# on beat 2 of bar 3, given here as ‘6’, is printed as ‘7’ in the source. Only the text of v1 and the chorus isgiven by Massey: vv. 2-4 have here been added using the text from John Broderip’s A Second Book of New Anthems and PsalmTunes [1749], which appears to be the first setting of a version of this text to use the 3-line chorus which is present in Massey’s setting.This tune is followed by a note in the source: ‘NB. This tune may be sung without the Chorus to any hymn of the same metre’." A,,6 A,2 | %9
w: bove, Those|
w: way, And|
w: born, Pour'd|
"^6" F,4 D,4 |"^8" E,4"^7""^#" F,4 | B,,8 | D,4"^64" A,2"^42" G,2 |"^6" (F,2 E,2 D,2)"^6" F,2 | %14
w: hap- py|seats of|rest:|How much for|lost _ _ man-|
w: thoughts of|mea- ner|things:|This day to|cure _ _ thy|
w: forth se-|ra- phic|songs,|Much more should|we _ _ of|
 (G,2"^6" F,2)"^64" (E,2 D,2) |"^64" A,6"^53" G,2 |"^6" (F,2 E,D,"^7" E,2)"^7" A,,2 | %17
w: kind _ he _|bore, Their|peace _ _ _ and|
w: dead- * ly _|woes, The|sun _ _ _ of|
w: hu- * man _|race A-|dore _ _ _ the|
 D,4"^53""^42" G,4 |"^6" F,4"^7" A,4 | D6 B,2 | (A,2"^64" G,2"^6" F,2) D,2 | (G,2 E,2 A,2) A,,2 | %22
w: par- don|to re-|store, Can|ne- * * ver|be _ _ ex-|
w: right- eous-|ness a-|rose, With|heal- * * ing|in _ _ his|
w: won- ders|of his|grace, To|whom _ _ the|grace _ _ be-|
 D,8 ||[M:3/4] D,2"^6" F,2 D,2 |"^53""^97" G,4"^6" F,2 |"^6" (G,2"^64" A,2)"^53" A,,2 | D,4 D,2 | %27
w: press’d.|||||
w: wings.|O then let|heav’n and|earth _ re-|joice, re-|
w: longs.|||||
 (A,>^G, A,>B, C>A, | D4)"^8va" G,2 | (F,2 A,2) D2 | (B,2 G,2) F,2 | (E,2 F,2) G,2 | A,4 A,2 | %33
w: ||||||
w: joice, _ _ _ _ _|_ Cre-|a- * tion’s|whole _ u-|ni- * ted|voice, And|
w: ||||||
"^6" (F,>E, D,2) A,,2 | (D,2"^6" F,2) D,2 | (G,2 E,2) A,2 | D,6 |] %37
w: ||||
w: hymn _ _ the|hap- * py,|hap- * py|day.|
w: ||||

